source/img/icon-facebook.svg

<svg width="12" height="20" viewBox="0 0 12 20" xmlns="http://www.w3.org/2000/svg">
<path d="M8.46041 0C5.45614 0 3.39869 1.65638 3.39869 4.69933V7.32182H0V10.8784H3.39869V20H7.46134V10.8784H10.8506L11.3596 7.32182H7.46134V5.05071C7.46134 4.02128 7.77835 3.31953 9.41206 3.31953H11.4955V0.139979C11.1352 0.0966486 9.89947 0 8.46041 0Z"/>
</svg>

<svg width="12" height="20" xmlns="http://www.w3.org/2000/svg"><path d="M8.46 0C5.456 0 3.4 1.656 3.4 4.7v2.622H0v3.556h3.399V20H7.46v-9.122h3.39l.509-3.556H7.46V5.05c0-1.03.317-1.731 1.951-1.731h2.083V.14A30.794 30.794 0 008.46 0z"/></svg>
